X: 201
M: 2/2
L: 1/8
K: G
!segno!g4 |\
[| "1.F."B2B2 |\
{B}A2GA B2B2 | A2D2 GFGA | BcBA GABc | d4 !segno!y |]
[| "1.F."gfga |\
b2a2 g2f2 | e4 fefg | a2g2 f2e2 | ^d2B2 efge |\
f2B2 efge | f2B2 efga | b2a2 !+!f3e | e4 !segno!y|]

